X:85
T:Boatie Rows, The
C:arr. Carlo Minasi
M:2/4
L:1/8
B:Chappell's One Hundred Scotch Melodies
B:Arranged for the Concertina by Carlo Minasi
Q:"Allegretto  "1/4=130
Z:Peter Dunk 2012
K:D
!p!D|(F<A) (A>B)|(Ad) (e/d/c/B/)|(A<F) (E>D)|(FE) zD|\
(F<A) (A>B)|(Ad) (e/d/c/B/)|(A>F) (E>F)|D3||
!mf!A|([dF]A)(AB)|([dF]A)(Ad)|([BG]>ABd)|L[e3c3A3] c|\
(d<f) (Bd)|(A>dAF)|(E>DE>F)|D3|

